svg/arrow/arrow_to_up_line.svg

<?xml version="1.0" encoding="UTF-8"?>
<svg width="24px" height="24px" viewBox="0 0 24 24" version="1.1" xmlns="http://www.w3.org/2000/svg" xmlns:xlink="http://www.w3.org/1999/xlink">
    <title>arow_to_up_line</title>
    <g id="Icon" stroke="none" stroke-width="1" fill="none" fill-rule="evenodd">
        <g id="Arrow" transform="translate(-336.000000, -98.000000)" fill-rule="nonzero">
            <g id="arow_to_up_line" transform="translate(336.000000, 98.000000)">
                <path d="M24,0 L24,24 L0,24 L0,0 L24,0 Z M12.5935,23.2578 L12.5819,23.2595 L12.5109,23.295 L12.4919,23.2987 L12.4767,23.295 L12.4057,23.2595 C12.3958,23.2564 12.387,23.259 12.3821,23.2649 L12.378,23.2758 L12.3609,23.7031 L12.3659,23.7235 L12.3769,23.7357 L12.4805,23.8097 L12.4953,23.8136 L12.5071,23.8097 L12.6107,23.7357 L12.6233,23.7197 L12.6267,23.7031 L12.6096,23.2758 C12.6076,23.2657 12.601,23.2593 12.5935,23.2578 Z M12.8584,23.1453 L12.8445,23.1473 L12.6598,23.2397 L12.6499,23.2499 L12.6472,23.2611 L12.6651,23.6906 L12.6699,23.7034 L12.6784,23.7105 L12.8793,23.8032 C12.8914,23.8069 12.9022,23.803 12.9078,23.7952 L12.9118,23.7812 L12.8777,23.1665 C12.8753,23.1546 12.8674,23.147 12.8584,23.1453 Z M12.143,23.1473 C12.1332,23.1424 12.1222,23.1453 12.1156,23.1526 L12.1099,23.1665 L12.0758,23.7812 C12.0751,23.7927 12.0828,23.8019 12.0926,23.8046 L12.1083,23.8032 L12.3092,23.7105 L12.3186,23.7024 L12.3225,23.6906 L12.3404,23.2611 L12.3372,23.2485 L12.3278,23.2397 L12.143,23.1473 Z" id="MingCute"></path>
                <path d="M19,5 C19.5523,5 20,4.55229 20,4 C20,3.44772 19.5523,3 19,3 L5,3 C4.44771,3 4,3.44771 4,4 C4,4.55228 4.44771,5 5,5 L19,5 Z M7.05048,12.7026 C7.441,13.0931 8.07417,13.0931 8.46469,12.7026 L11,10.1673 L10.9999,20 C10.9999,20.5523 11.4477,21 11.9999,21 C12.5522,21 12.9999,20.5523 12.9999,20 L13,10.1668 L15.5358,12.7026 C15.9263,13.0931 16.5595,13.0931 16.95,12.7026 C17.3405,12.3121 17.3405,11.6789 16.95,11.2884 L12.7073,7.04573 C12.3168,6.65521 11.6837,6.65521 11.2931,7.04573 L7.05048,11.2884 C6.65996,11.6789 6.65996,12.3121 7.05048,12.7026 Z" id="形状" fill="#09244B"></path>
            </g>
        </g>
    </g>
</svg>

<svg xmlns="http://www.w3.org/2000/svg" width="24" height="24"><g fill="none" fill-rule="nonzero"><path d="M24 0v24H0V0h24ZM12.594 23.258l-.012.002-.071.035-.02.004-.014-.004-.071-.036c-.01-.003-.019 0-.024.006l-.004.01-.017.428.005.02.01.013.104.074.015.004.012-.004.104-.074.012-.016.004-.017-.017-.427c-.002-.01-.009-.017-.016-.018Zm.264-.113-.014.002-.184.093-.01.01-.003.011.018.43.005.012.008.008.201.092c.012.004.023 0 .029-.008l.004-.014-.034-.614c-.003-.012-.01-.02-.02-.022Zm-.715.002a.023.023 0 0 0-.027.006l-.006.014-.034.614c0 .012.007.02.017.024l.015-.002.201-.093.01-.008.003-.011.018-.43-.003-.012-.01-.01-.184-.092Z"/><path fill="#09244B" d="M19 5a1 1 0 1 0 0-2H5a1 1 0 1 0 0 2h14ZM7.05 12.703a1 1 0 0 0 1.415 0L11 10.167V20a1 1 0 0 0 2 0v-9.833l2.536 2.536a1 1 0 0 0 1.414-1.415l-4.243-4.242a1 1 0 0 0-1.414 0L7.05 11.288a1 1 0 0 0 0 1.415Z"/></g></svg>
